X: 1
T: the Rights of Man
R: hornpipe, march
O: Ireland, Scotland, England
Z: 2014 John Chambers <jc:trillian.mit.edu>
S: handwritten MS by John Chambers (1970s)
M: 4/4
L: 1/8
K: Em
GA |\
"Em"Bc AB "B7"GA FG | "Em"EF GA B2 ef |\
[1 gf ed ed Bd | "Am"cBAG "D"A2 :|\
[2 "Em"gf ed "B7"Bg fg | "Em"e4 {BGB} E2 :|
|: ga |\
"Em"b2 bg ef ga | b2 bg eg fe | "D"d2 d^c de fg | af df a2 gf |\
"Em"ed ef gf ga | bg af gf ef | "Em"gf ed "B7"Bg fg | "Em"e4 {BGB} E2 :|
